museum/assets/i-email.svg

<svg width="40" height="40" viewBox="0 0 40 40" fill="none" xmlns="http://www.w3.org/2000/svg">
<path fill-rule="evenodd" clip-rule="evenodd" d="M19.8824 0C30.8631 0 39.7647 8.90163 39.7647 19.8824C39.7647 30.8631 30.8631 39.7647 19.8824 39.7647C8.90163 39.7647 0 30.8631 0 19.8824C0 8.90163 8.90163 0 19.8824 0ZM23.1232 21.2084C22.9779 21.0729 22.8907 21.0712 22.7429 21.2039C22.3074 21.5947 21.8574 21.9698 21.4113 22.3491C20.3566 23.2458 18.9125 23.2364 17.8755 22.3331C17.4341 21.9485 16.98 21.5778 16.5403 21.1914C16.4169 21.0831 16.3413 21.0801 16.2174 21.1945C14.0663 23.1782 11.9107 25.1571 9.75779 27.1389C9.70396 27.1884 9.61223 27.2235 9.63664 27.3382H29.6671C29.6503 27.2231 29.5792 27.188 29.5278 27.1404L27.5933 25.3535C26.1018 23.9733 24.6093 22.5943 23.1232 21.2084ZM31.2595 13.9816C31.174 13.9436 31.1199 14.0441 31.0614 14.0942C28.8627 15.9762 26.6675 17.862 24.4635 19.7379C24.2777 19.896 24.3008 19.9725 24.4615 20.1199C25.8921 21.4331 27.3161 22.7534 28.7425 24.0711C29.4944 24.7658 30.2497 25.4571 30.9986 26.1551C31.1387 26.2859 31.204 26.2762 31.254 26.0892C31.3049 25.8989 31.3087 25.7069 31.3087 25.5137L31.3085 17.0903L31.3069 14.2019C31.3069 14.1259 31.3431 14.0189 31.2595 13.9816ZM8.07296 13.9831L8.03379 13.9953C7.90595 14.0629 7.96805 14.3196 7.96785 14.4943C7.96588 16.3229 7.96667 18.1517 7.96667 19.9803C7.96667 21.7365 7.96519 23.4924 7.96834 25.2485C7.96874 25.4818 7.9834 25.716 8.00997 25.9475C8.02198 26.0526 8.02159 26.2021 8.1393 26.237C8.23053 26.2639 8.29716 26.1399 8.36714 26.0756C10.5324 24.0852 12.695 22.0921 14.8638 20.1056C15.0151 19.967 15.0287 19.8934 14.8659 19.7549C12.7171 17.9277 10.5742 16.0934 8.42629 14.265C8.30091 14.1582 8.16371 13.9264 8.03379 13.9953L8.07296 13.9831ZM19.6418 12.4265L9.8057 12.4271C9.63416 12.4271 9.46124 12.4244 9.295 12.479C9.23536 12.4986 9.15062 12.4948 9.13704 12.5688C9.12582 12.6295 9.19855 12.6574 9.24038 12.6934C9.54253 12.9531 9.84566 13.2118 10.1484 13.4707C13.077 15.9757 16.0046 18.4815 18.9349 20.9845C19.4994 21.4666 19.8276 21.4548 20.3897 20.973C23.3834 18.4067 26.3788 15.8421 29.3735 13.2768C29.6429 13.0459 29.9106 12.813 30.1927 12.5694C29.952 12.4197 29.7128 12.4274 29.478 12.4274C22.9206 12.4262 16.3631 12.4263 9.8057 12.4271L19.6418 12.4265Z" fill="#121212"/>
</svg>

<svg width="40" height="40" viewBox="0 0 40 40" fill="none" xmlns="http://www.w3.org/2000/svg"><path fill-rule="evenodd" clip-rule="evenodd" d="M19.882 0c10.981 0 19.883 8.902 19.883 19.882 0 10.981-8.902 19.883-19.883 19.883C8.902 39.765 0 30.863 0 19.882 0 8.902 8.902 0 19.882 0Zm3.241 21.208c-.145-.135-.232-.137-.38-.004-.436.39-.886.766-1.332 1.145-1.054.897-2.498.887-3.536-.016-.44-.384-.895-.755-1.335-1.142-.123-.108-.199-.11-.323.004-2.15 1.983-4.306 3.962-6.46 5.944-.053.05-.145.085-.12.2h20.03c-.017-.116-.088-.151-.14-.199l-1.934-1.787c-1.491-1.38-2.984-2.759-4.47-4.145Zm8.136-7.226c-.085-.038-.14.062-.198.112-2.198 1.882-4.393 3.768-6.598 5.644-.185.158-.162.235-.002.382 1.431 1.313 2.855 2.633 4.282 3.951.751.695 1.507 1.386 2.256 2.084.14.13.205.121.255-.066.05-.19.055-.382.055-.575V17.09l-.002-2.888c0-.076.036-.183-.047-.22Zm-23.186.001-.04.012c-.127.068-.065.325-.065.5-.002 1.828-.001 3.657-.001 5.485 0 1.756-.002 3.512.001 5.268 0 .234.015.468.042.7.012.105.012.254.13.289.09.027.157-.097.227-.161 2.165-1.99 4.328-3.984 6.497-5.97.151-.139.165-.213.002-.351-2.149-1.827-4.292-3.662-6.44-5.49-.125-.107-.262-.339-.392-.27l.039-.012Zm11.569-1.556H9.806c-.172 0-.345-.003-.511.052-.06.02-.144.016-.158.09-.011.06.062.088.103.124l.908.778c2.929 2.505 5.857 5.01 8.787 7.514.564.482.893.47 1.455-.012 2.993-2.566 5.989-5.13 8.983-7.696.27-.231.538-.464.82-.708-.241-.15-.48-.142-.715-.142H9.806h9.836Z" fill="#121212"/></svg>
